svg/rewind_outline.svg

<svg xmlns="http://www.w3.org/2000/svg" viewBox="0 0 24 24"><path d="M10 9.9 7 12l3 2.1zm9 0L16 12l3 2.1zM12 6v12l-8.5-6zm9 0v12l-8.5-6z"/></svg>

<?xml version="1.0" encoding="UTF-8"?><!DOCTYPE svg PUBLIC "-//W3C//DTD SVG 1.1//EN" "http://www.w3.org/Graphics/SVG/1.1/DTD/svg11.dtd"><svg xmlns="http://www.w3.org/2000/svg" xmlns:xlink="http://www.w3.org/1999/xlink" version="1.1" id="mdi-rewind-outline" width="24" height="24" viewBox="0 0 24 24"><path d="M10,9.9L7,12L10,14.1V9.9M19,9.9L16,12L19,14.1V9.9M12,6V18L3.5,12L12,6M21,6V18L12.5,12L21,6Z" /></svg>
